world_stage/static/flags/SWE/square.svg

<svg height="2000" viewBox="0 0 2000 2000.0001" width="2000" xmlns="http://www.w3.org/2000/svg"><path d="m0 2000h2000v-2000h-2000z" fill="#005293" stroke-width="1.63299"/><g fill="#fecb00"><path d="m609.33332 2000h266.66666v-2000h-266.66666z" stroke-width="1.63299"/><path d="m0 1133.334h2000v-266.668h-2000z" stroke-width="1.33333"/></g></svg>

<?xml version="1.0" encoding="UTF-8" standalone="no"?>
<svg
   height="2000"
   viewBox="0 0 2000 2000.0001"
   width="2000"
   version="1.1"
   id="svg4"
   sodipodi:docname="rect copy.svg"
   inkscape:version="1.4 (e7c3feb1, 2024-10-09)"
   xmlns:inkscape="http://www.inkscape.org/namespaces/inkscape"
   xmlns:sodipodi="http://sodipodi.sourceforge.net/DTD/sodipodi-0.dtd"
   xmlns="http://www.w3.org/2000/svg"
   xmlns:svg="http://www.w3.org/2000/svg">
  <defs
     id="defs4" />
  <sodipodi:namedview
     id="namedview4"
     pagecolor="#ffffff"
     bordercolor="#000000"
     borderopacity="0.25"
     inkscape:showpageshadow="2"
     inkscape:pageopacity="0.0"
     inkscape:pagecheckerboard="0"
     inkscape:deskcolor="#d1d1d1"
     inkscape:current-layer="svg4" />
  <path
     d="M 0,2000 H 2000 V 0 H 0 Z"
     fill="#005293"
     id="path1"
     style="stroke-width:1.63299" />
  <path
     d="M 609.33332,2000 H 875.99998 V 0 H 609.33332 Z"
     id="path2"
     style="fill:#fecb00;stroke-width:1.63299" />
  <path
     d="M 0,1133.334 H 2000 V 866.666 H 0 Z"
     id="path3"
     style="fill:#fecb00;stroke-width:1.33333" />
</svg>
